X:1
T:Duble Drag. JBut.627, A
L:1/8
Q:3/8=110
M:6/8
I:linebreak $
K:D
V:1 treble 
V:1
|: A | ded fdd | edd fdd | ded fdd | gee e2 f | ded fdd | edd fdB | ABA a2 g |$ fdd d2 :: %9
"^rest added" z | AFA A2 d | AFA B2 d | AFA A2 f | gee e2 A | AFA A2 d | AFA B2 e | A2 a a2 g |$ %17
 fdd d2 :| %18
